X: 40
T:The Gun
M:6/8
L:1/8
Q:110
R:Jig
K:Bb
B2B A2F|B3 c3|d2d c2A|d3 e3|f2f g2f|fe2 f3|d2e f>gf|e2d d3||
f2d f2g|f2e e3|c2A B>BA|G2F F3|A2F B2c|d2e f3|d2c dB2|e2f g3|d2e f>ed|c2
B B3||

